X: 36206
T: Scotty's Favourite
R: jig
M: 6/8
K: Edorian
|:F|EFE G2 A|BcB B2 A|FAF D2 F|AdB AFD|
EFE G2 A|BcB g2 f|efe B2 d|e3 e2:|
|:f|g3 f2 d|edB B2 B|g3 f2 g|afd def|
gag faf|edB B2 A|GFE FED|E3 E2:|

